icons/home-8-line.svg

<svg xmlns="http://www.w3.org/2000/svg" width="24" height="24" fill="none"><g clip-path="url(#a)"><g><path fill="#121212" d="M19 21H5C4.73478 21 4.48043 20.8947 4.29289 20.7071C4.10536 20.5196 4 20.2653 4 20V11H1L11.327 1.61204C11.5111 1.44452 11.7511 1.35168 12 1.35168C12.2489 1.35168 12.4889 1.44452 12.673 1.61204L23 11H20V20C20 20.2653 19.8946 20.5196 19.7071 20.7071C19.5196 20.8947 19.2652 21 19 21ZM6 19H18V9.15704L12 3.70304L6 9.15704V19ZM9 10H15V16H9V10ZM11 12V14H13V12H11Z"/></g></g><defs><clipPath id="a"><rect width="24" height="24" fill="white"/></clipPath></defs></svg>

<svg width="24" height="24" fill="none" xmlns="http://www.w3.org/2000/svg"><g clip-path="url(#a)"><path d="M19 21H5a1 1 0 0 1-1-1v-9H1l10.327-9.388a1 1 0 0 1 1.346 0L23 11h-3v9a1 1 0 0 1-1 1ZM6 19h12V9.157l-6-5.454-6 5.454V19Zm3-9h6v6H9v-6Zm2 2v2h2v-2h-2Z" /></g><defs><clipPath id="a"><path fill="#fff" d="M0 0h24v24H0z"/></clipPath></defs></svg>
